img/contacts__icon_03.svg

<svg width="48" height="23" viewBox="0 0 48 23" fill="none" xmlns="http://www.w3.org/2000/svg">
<path d="M13.2894 0.506836V22.4929H47.5526V0.545683H13.2894V0.506836ZM30.421 15.1901L15.3815 1.67217H45.421L30.421 15.1901ZM24.5 11.461L14.4342 20.5507V2.41022L24.5 11.461ZM25.3684 12.2379L30.3815 16.7439L35.3552 12.2768L45.421 21.2887H15.3815L25.3684 12.2379ZM36.2631 11.4999L46.3684 2.41022V20.5507L36.2631 11.4999Z" fill="black"/>
<path d="M9.02629 11.8107C9.02629 11.4999 8.74998 11.228 8.43419 11.228H1.32892C1.01313 11.228 0.736816 11.4999 0.736816 11.8107C0.736816 12.1215 1.01313 12.3934 1.32892 12.3934H8.43419C8.74998 12.3934 9.02629 12.1603 9.02629 11.8107Z" fill="black"/>
<path d="M9.61839 16.6665H2.51313C2.19734 16.6665 1.92102 16.9384 1.92102 17.2492C1.92102 17.5599 2.19734 17.8318 2.51313 17.8318H9.61839C9.93418 17.8318 10.2105 17.5599 10.2105 17.2492C10.2105 16.9384 9.93418 16.6665 9.61839 16.6665Z" fill="black"/>
<path d="M9.61839 5.40137H2.51313C2.19734 5.40137 1.92102 5.67328 1.92102 5.98404C1.92102 6.29479 2.19734 6.56671 2.51313 6.56671H9.61839C9.93418 6.56671 10.2105 6.29479 10.2105 5.98404C10.2105 5.67328 9.93418 5.40137 9.61839 5.40137Z" fill="black"/>
</svg>

<svg width="48" height="23" fill="none" xmlns="http://www.w3.org/2000/svg"><path d="M13.29.507v21.986h34.263V.546H13.289v-.04zM30.42 15.19L15.381 1.672h30.04l-15 13.518zm-5.92-3.729l-10.066 9.09V2.41L24.5 11.46zm.868.777l5.014 4.506 4.973-4.467 10.066 9.012h-30.04l9.987-9.051zm10.895-.738l10.105-9.09v18.14L36.263 11.5zm-27.237.31a.602.602 0 00-.592-.582H1.33a.602.602 0 00-.592.583c0 .31.276.582.592.582h7.105a.577.577 0 00.592-.582zm.592 4.856H2.513a.602.602 0 00-.592.583c0 .31.276.583.592.583h7.105a.602.602 0 00.592-.583.602.602 0 00-.592-.582zm0-11.265H2.513a.602.602 0 00-.592.583c0 .31.276.583.592.583h7.105a.602.602 0 00.592-.583.602.602 0 00-.592-.583z" fill="#000"/></svg>
